src/assets/icons/next-icon.svg

<?xml version="1.0" encoding="iso-8859-1"?>
<!-- Generator: Adobe Illustrator 19.1.0, SVG Export Plug-In . SVG Version: 6.00 Build 0)  -->
<svg version="1.1" id="Capa_1" xmlns="http://www.w3.org/2000/svg" xmlns:xlink="http://www.w3.org/1999/xlink" x="0px" y="0px"
	 viewBox="0 0 477.175 477.175" style="enable-background:new 0 0 477.175 477.175;" xml:space="preserve">
<g>
	<path d="M360.731,229.075l-225.1-225.1c-5.3-5.3-13.8-5.3-19.1,0s-5.3,13.8,0,19.1l215.5,215.5l-215.5,215.5
		c-5.3,5.3-5.3,13.8,0,19.1c2.6,2.6,6.1,4,9.5,4c3.4,0,6.9-1.3,9.5-4l225.1-225.1C365.931,242.875,365.931,234.275,360.731,229.075z
		"/>
</g>
<g>
</g>
<g>
</g>
<g>
</g>
<g>
</g>
<g>
</g>
<g>
</g>
<g>
</g>
<g>
</g>
<g>
</g>
<g>
</g>
<g>
</g>
<g>
</g>
<g>
</g>
<g>
</g>
<g>
</g>
</svg>

<svg width="478" height="478" viewBox="0 0 478 478" fill="none" xmlns="http://www.w3.org/2000/svg">
<g clip-path="url(#clip0_519_1696)">
<path d="M360.731 229.075L135.631 3.975C130.331 -1.325 121.831 -1.325 116.531 3.975C111.231 9.275 111.231 17.775 116.531 23.075L332.031 238.575L116.531 454.075C111.231 459.375 111.231 467.875 116.531 473.175C119.131 475.775 122.631 477.175 126.031 477.175C129.431 477.175 132.931 475.875 135.531 473.175L360.631 248.075C365.931 242.875 365.931 234.275 360.731 229.075Z" fill="#64748B"/>
</g>
<defs>
<clipPath id="clip0_519_1696">
<rect width="477.175" height="477.175" fill="white"/>
</clipPath>
</defs>
</svg>
